X:1
T: Darling Uist Lassies
C:
R:Reel
Q: 232
K:D
M:4/4
L:1/8
|:B|AG Fd FG Ad|fd AF E3B|AG Fd FG Ad|ec Ac d3B|
AG Fd FG Ad|fd AF E3B|AG Fd FG Ad|ec Ac d3g|
fd fa bg gb|af fa g3g|fd fa bg gb|ag ec d3g|
fd fa bg gb|af df e3g|fg af ga bg|ag ec d3:|
